view/frontend/web/svg/flags/nf.svg

<svg width="24" height="24" viewbox="0 0 20 15" viewBox="0 0 20 15" fill="none" xmlns="http://www.w3.org/2000/svg">
<g clip-path="url(#clip0_270_60840)">
<rect width="20" height="15" fill="white"/>
<path fill-rule="evenodd" clip-rule="evenodd" d="M14 0H20V15H14V0Z" fill="#409100"/>
<path fill-rule="evenodd" clip-rule="evenodd" d="M0 0H6V15H0V0Z" fill="#409100"/>
<path fill-rule="evenodd" clip-rule="evenodd" d="M6 0H14V15H6V0Z" fill="white"/>
<path fill-rule="evenodd" clip-rule="evenodd" d="M7.93461 11.7315C6.96234 11.8897 6.65577 11.4152 6.65577 11.4152L6.77822 11.3146C6.86045 11.2471 7.13746 11.2702 7.40647 11.2927C7.53803 11.3038 7.66768 11.3146 7.7717 11.3146C7.92345 11.3146 8.09808 11.2917 8.28001 11.2679C8.47783 11.2419 8.68428 11.2149 8.87933 11.2149C9.25378 11.2149 7.7717 10.7252 7.45496 11.0255C7.13822 11.3258 6.25 10.8863 6.25 10.6357C6.25 10.4648 6.57699 10.5271 6.87526 10.584C7.01413 10.6105 7.14677 10.6357 7.23728 10.6357C7.5222 10.6357 6.95237 10.0799 6.65577 10.0799C6.35916 10.0799 6.95237 9.95085 7.23728 9.95085C7.39952 9.95085 7.55027 9.9927 7.68009 10.0287L7.6801 10.0288C7.77827 10.056 7.86447 10.0799 7.93461 10.0799C8.09752 10.0799 7.11656 9.6583 6.95237 9.6583H7.7717C8.0529 9.6583 8.12118 9.69794 8.18589 9.7355C8.24416 9.76932 8.29954 9.80146 8.50488 9.80146C8.93826 9.80146 8.70096 9.56441 8.70096 9.56441C8.70096 9.56441 7.23728 9.41245 6.95237 9.20257C6.75972 9.06064 7.27672 9.11065 7.76537 9.15792C7.99937 9.18056 8.22688 9.20257 8.36683 9.20257C8.79906 9.20257 7.45496 8.89403 7.23728 8.89403H8.22783C8.44467 8.89403 8.68273 8.96376 8.9325 9.03692L8.9325 9.03692C9.20813 9.11765 9.49802 9.20257 9.78941 9.20257C10.0966 9.20257 9.49665 9.01931 8.83757 8.818C8.30497 8.65533 7.73377 8.48086 7.57147 8.38177C7.40355 8.27925 7.53128 8.31895 7.76394 8.39127C8.03439 8.47534 8.44662 8.60348 8.70096 8.60348C9.17408 8.60348 8.0715 8.13932 7.7717 8.13932C7.4719 8.13932 7.18488 8.00439 7.45496 7.87966C7.62079 7.80308 8.0527 7.91842 8.42887 8.01888L8.42887 8.01889C8.66538 8.08205 8.87985 8.13932 8.99232 8.13932C9.12868 8.13932 9.22951 8.19242 9.3368 8.24892C9.45876 8.31315 9.58908 8.38177 9.78941 8.38177C10.166 8.38177 8.99232 7.87966 8.50488 7.87966C8.01744 7.87966 7.93461 7.64318 8.22783 7.64318C8.52105 7.64318 7.57147 7.2403 7.57147 7.2403C7.57147 7.2403 7.43381 6.95457 7.7717 6.95457H8.22783C8.38415 6.95457 8.0715 6.45901 7.7717 6.45901C7.4719 6.45901 7.73336 6.3093 8.22783 6.3093C8.52851 6.3093 8.70441 6.41307 8.91607 6.53794C9.05248 6.61843 9.20375 6.70767 9.41285 6.78353C9.94637 6.97711 9.54393 6.45901 9.41285 6.45901C9.28177 6.45901 7.93461 6.03673 7.93461 6.03673C7.93461 6.03673 8.0715 5.88117 7.93461 5.66936C7.8313 5.50952 8.26122 5.59092 8.52302 5.64049L8.52304 5.64049C8.60815 5.65661 8.67549 5.66936 8.70096 5.66936C8.76293 5.66936 8.94091 5.71359 9.15947 5.76791L9.1595 5.76792C9.30699 5.80458 9.47296 5.84583 9.63424 5.88117C10.0345 5.96891 8.27455 5.23488 8.0715 5.23488C7.86846 5.23488 8.50488 5.11426 8.87933 5.11426C9.06343 5.11426 9.15223 5.14342 9.24251 5.17306C9.33585 5.20371 9.43077 5.23488 9.63424 5.23488C10.0345 5.23488 8.87933 4.80586 8.50488 4.80586C8.13043 4.80586 8.35181 4.43644 8.50488 4.43644C8.56447 4.43644 8.71529 4.45626 8.89949 4.48046L8.8995 4.48046C9.18842 4.51843 9.55946 4.5672 9.78941 4.5672C9.96448 4.5672 9.80448 4.51814 9.57178 4.44679C9.30395 4.36467 8.93979 4.25301 8.87933 4.15263C8.8126 4.04183 8.94839 4.06191 9.18518 4.09691L9.18519 4.09691L9.18519 4.09692L9.1852 4.09692L9.1852 4.09692L9.18521 4.09692L9.18521 4.09692C9.228 4.10324 9.27408 4.11006 9.32286 4.11667C9.48431 4.20127 9.61918 4.25591 9.6389 4.19139C9.64458 4.17283 9.65725 4.15957 9.67338 4.15002C9.71151 4.15169 9.75024 4.15263 9.78941 4.15263C10.0126 4.15263 9.90947 4.11861 9.69465 4.07791L9.6754 4.07203C9.34944 3.97237 8.64407 3.75933 8.90794 3.8908C8.95962 3.91655 9.0177 3.94832 9.07796 3.98187C8.9001 3.9583 8.75063 3.94197 8.70096 3.94197C8.52258 3.94197 8.3437 3.80414 8.70096 3.80414H9.41285C9.19147 3.80414 8.87933 3.80414 8.87933 3.63022C8.87933 3.51185 9.12647 3.55461 9.35414 3.59399C9.46098 3.61248 9.56353 3.63022 9.63424 3.63022C9.85562 3.63022 9.91071 3.63022 9.78941 3.52675C9.67424 3.42851 9.27702 3.42899 9.03034 3.42929H9.03034L8.99232 3.42932C8.75068 3.42932 9.50469 3.30306 9.78941 3.30306C9.83727 3.30306 9.8584 3.30306 9.85844 3.30216C9.85847 3.30144 9.84532 3.30016 9.82177 3.29787L9.82177 3.29787C9.69789 3.28583 9.28628 3.2458 8.99232 3.11282C8.72935 2.99386 8.95972 3.02368 9.26134 3.06273C9.44205 3.08612 9.64833 3.11282 9.78941 3.11282C10.166 3.11282 9.63424 2.85959 9.23397 2.85959C8.91269 2.85959 9.06578 2.77183 9.26443 2.65795L9.26444 2.65794C9.31328 2.62994 9.36488 2.60037 9.41285 2.57012C9.55728 2.47909 9.66301 2.6344 9.72504 2.72552C9.76742 2.78779 9.78941 2.82009 9.78941 2.72336C9.78941 2.62896 9.76505 2.56906 9.74529 2.53757C9.75586 2.54645 9.77028 2.55736 9.78941 2.57012C9.94459 2.67365 9.78941 2.29852 9.78941 2.29852C9.78941 2.29852 9.63424 2.19492 9.78941 2.19492C9.94459 2.19492 9.7395 2.01683 9.63424 2.01683C9.52898 2.01683 9.91071 1.84644 9.91071 1.84644L9.99482 1.125C9.99482 1.125 10.2029 1.91111 10.2029 2.01683V2.57012C10.2029 2.70185 10.1098 2.79375 10.0475 2.85524C9.96934 2.93236 9.93967 2.96164 10.2029 2.96164C10.676 2.96164 10.6559 3.11282 10.3679 3.11282C10.0799 3.11282 10.4506 3.30306 10.9677 3.30306C11.4848 3.30306 10.534 3.52675 10.2029 3.52675C9.87174 3.52675 10.534 3.63022 10.9677 3.63022C11.2605 3.63022 10.9601 3.73143 10.683 3.82481C10.5497 3.86971 10.4218 3.91281 10.3679 3.94197C10.2819 3.98842 10.4938 3.98681 10.7184 3.97443C10.6004 4.0092 10.4832 4.04484 10.3942 4.07203L10.3942 4.07203C10.2864 4.10501 10.2499 4.11616 10.2507 4.12064C10.2511 4.12293 10.2612 4.12348 10.2766 4.12432C10.3219 4.12678 10.4125 4.13171 10.4307 4.19139C10.4579 4.28046 10.7046 4.14243 10.9377 4.01201C10.9751 3.99112 11.012 3.97042 11.0477 3.95089C11.109 3.9457 11.1484 3.94197 11.1484 3.94197C11.1484 3.94197 11.3627 4.18923 11.3627 4.34023C11.3627 4.42829 11.0808 4.45425 10.7801 4.48193L10.7801 4.48193L10.7498 4.48472C10.7649 4.46487 10.701 4.47526 10.6071 4.49848C10.4511 4.51453 10.3039 4.53439 10.2029 4.5672C10.1064 4.59853 10.1227 4.61161 10.2011 4.61441L10.1798 4.62092C10.106 4.6435 10.0806 4.65124 10.0812 4.6557C10.0815 4.65802 10.0888 4.65945 10.1001 4.66162C10.1327 4.66795 10.1981 4.6806 10.2163 4.74028C10.2435 4.82935 10.4083 4.71638 10.5639 4.60963L10.5786 4.59955L10.7267 4.58968L10.7267 4.58968C10.8961 4.57822 11.0591 4.5672 11.1484 4.5672C11.4275 4.5672 10.8693 4.70175 10.6559 4.70175C10.565 4.70175 10.6795 4.72232 10.854 4.75369L10.854 4.75369L10.854 4.75369L10.854 4.75369C11.0897 4.79605 11.4349 4.8581 11.5324 4.91581C11.649 4.98478 11.3067 4.95904 11.0021 4.93613C10.8631 4.92567 10.732 4.91581 10.6559 4.91581C10.413 4.91581 10.3679 5.11426 10.534 5.11426H11.1484C11.3808 5.11426 11.6227 5.46975 11.5324 5.46975C11.5051 5.46975 11.4465 5.48807 11.3649 5.51361C11.177 5.57237 10.867 5.66936 10.534 5.66936C10.0563 5.66936 11.1484 5.66987 11.3627 5.66936C11.577 5.66885 12.1883 5.66987 12.1883 5.88117C12.1883 6.01262 12.0726 6.04149 11.921 6.07933C11.8288 6.10231 11.7234 6.12861 11.6227 6.18322C11.3561 6.32773 12.4199 6.45901 12.4199 6.45901C12.4199 6.45901 11.9989 6.58996 11.794 6.58996C11.5891 6.58996 11.8892 6.78353 12.4199 6.78353C12.8304 6.78353 12.7099 7.00661 12.6343 7.14652C12.6122 7.18746 12.5939 7.22127 12.5939 7.2403C12.5939 7.27709 12.5162 7.30884 12.4038 7.3548C12.2593 7.41385 12.0574 7.49636 11.8892 7.64318C11.6957 7.8121 11.9309 7.76244 12.1965 7.70633L12.1965 7.70633C12.3414 7.67571 12.4955 7.64318 12.5939 7.64318C12.8728 7.64318 12.9916 7.65481 12.9008 7.79007C12.81 7.92532 11.9989 8.13932 11.794 8.13932H12.9008C13.2077 8.13932 12.8149 8.38177 12.4199 8.38177C12.155 8.38177 12.0068 8.48147 11.9091 8.54716C11.8611 8.57942 11.8253 8.60348 11.794 8.60348H12.5939C12.6347 8.60348 12.6795 8.53833 12.7205 8.47863C12.7566 8.42613 12.7898 8.37784 12.8149 8.38177C13.1767 8.43856 13.0144 8.89403 12.8149 8.89403C12.5859 8.89403 11.8892 9.04759 11.9989 9.20257C12.0519 9.27757 12.1348 9.24368 12.2691 9.18872C12.4124 9.13013 12.6142 9.04759 12.9008 9.04759C13.4563 9.04759 12.9542 9.20257 12.8149 9.20257C12.6755 9.20257 12.0858 9.31515 11.8892 9.41245C11.7581 9.47741 12.2145 9.45564 12.6685 9.43399C12.8946 9.4232 13.1201 9.41245 13.2721 9.41245C13.7293 9.41245 12.1883 9.80146 11.6227 9.80146C11.057 9.80146 11.9989 9.95085 12.1883 9.95085C12.261 9.95085 12.4021 9.96984 12.5759 9.99326C12.8553 10.0309 13.2195 10.0799 13.5211 10.0799C14.0104 10.0799 13.0318 10.4023 12.5939 10.4023L12.4938 10.402C12.1034 10.4004 11.8098 10.3992 11.9989 10.6357C12.104 10.7673 12.4538 10.7315 12.8188 10.6941C13.1654 10.6586 13.5257 10.6217 13.7036 10.7252C14.0232 10.9111 12.609 10.8951 11.9989 10.8881C11.9117 10.8872 11.8409 10.8863 11.794 10.8863C11.4188 10.8863 12.1691 11.0255 12.8149 11.0255L12.8963 11.0255C13.4733 11.0251 13.6101 11.025 13.6101 11.2149C13.6101 11.3817 12.3532 11.3385 11.8286 11.3205H11.8286C11.7291 11.3171 11.6559 11.3146 11.6227 11.3146C11.5222 11.3146 11.464 11.3753 11.4037 11.4382C11.3391 11.5055 11.2722 11.5753 11.1484 11.5753C11.0465 11.5753 10.9986 11.5101 10.9549 11.4506C10.8961 11.3705 10.845 11.3008 10.6797 11.4152C10.3917 11.6145 10.9677 13.625 10.9677 13.625H9.41285V11.7315C9.41285 11.7315 8.90688 11.5734 7.93461 11.7315ZM9.72086 2.51029C9.71871 2.51074 9.7247 2.52029 9.74529 2.53757C9.73331 2.51848 9.72301 2.50984 9.72086 2.51029ZM9.1799 10.0148C8.93423 9.9223 9.55678 9.91755 9.84476 9.91755C9.93762 9.91755 9.97059 9.91755 9.97265 9.92551C9.97378 9.9299 9.96553 9.9367 9.95275 9.94725C9.91675 9.97695 9.84476 10.0364 9.84476 10.1552C9.84476 10.3325 9.61135 10.2185 9.3908 10.1108L9.39079 10.1108C9.31578 10.0742 9.24225 10.0383 9.1799 10.0148ZM9.6889 9.29103C9.40092 9.29103 8.77837 9.29578 9.02404 9.38827C9.08639 9.41174 9.15992 9.44765 9.23493 9.48428L9.23494 9.48429C9.45549 9.592 9.6889 9.70598 9.6889 9.52866C9.6889 9.40984 9.76089 9.35044 9.79689 9.32073C9.80967 9.31019 9.81791 9.30338 9.81678 9.299C9.81473 9.29103 9.78176 9.29103 9.6889 9.29103ZM9.16959 8.87221C8.96902 8.82364 9.47728 8.82114 9.71239 8.82114C9.78961 8.82114 9.81611 8.82114 9.81687 8.82556C9.81727 8.82787 9.81064 8.83139 9.80056 8.83674C9.77117 8.85234 9.71239 8.88355 9.71239 8.94596C9.71239 9.03909 9.52184 8.97922 9.34177 8.92265C9.28053 8.9034 9.22049 8.88454 9.16959 8.87221ZM9.6754 6.89136C9.34944 6.7917 8.64407 6.57866 8.90794 6.71013C8.9749 6.74349 9.05261 6.78697 9.13188 6.83133L9.1319 6.83133L9.1319 6.83134C9.365 6.96176 9.61167 7.09978 9.6389 7.01072C9.65715 6.95104 9.74776 6.94611 9.79307 6.94365C9.80839 6.94281 9.81853 6.94226 9.81894 6.93997C9.81974 6.93548 9.78326 6.92433 9.6754 6.89136ZM8.90794 6.08361C8.64407 5.95214 9.34944 6.16518 9.6754 6.26484C9.78326 6.29782 9.81974 6.30897 9.81894 6.31345C9.81853 6.31574 9.80839 6.31629 9.79307 6.31713C9.74776 6.31959 9.65715 6.32452 9.6389 6.3842C9.61167 6.47327 9.365 6.33524 9.1319 6.20482L9.1319 6.20482L9.13188 6.20481C9.05261 6.16045 8.9749 6.11697 8.90794 6.08361ZM9.6754 5.48169C9.34944 5.38204 8.64407 5.16899 8.90794 5.30046C8.9749 5.33383 9.05261 5.37731 9.13188 5.42166L9.1319 5.42167L9.1319 5.42167C9.365 5.5521 9.61167 5.69012 9.6389 5.60105C9.65715 5.54137 9.74776 5.53645 9.79307 5.53398C9.80839 5.53315 9.81853 5.5326 9.81894 5.53031C9.81974 5.52582 9.78326 5.51467 9.6754 5.48169ZM10.3807 9.76092C10.6687 9.76092 11.2913 9.76567 11.0456 9.85815C10.9832 9.88163 10.9097 9.91753 10.8347 9.95417L10.8347 9.95417C10.6141 10.0619 10.3807 10.1759 10.3807 9.99855C10.3807 9.87973 10.3087 9.82032 10.2727 9.79062L10.2727 9.79062C10.26 9.78007 10.2517 9.77327 10.2528 9.76888C10.2549 9.76092 10.2879 9.76092 10.3807 9.76092ZM11.0456 9.38827C11.2913 9.29578 10.6687 9.29103 10.3807 9.29103C10.2879 9.29103 10.2549 9.29103 10.2528 9.299C10.2517 9.30338 10.26 9.31018 10.2727 9.32073L10.2727 9.32073C10.3087 9.35044 10.3807 9.40984 10.3807 9.52866C10.3807 9.70598 10.6141 9.592 10.8347 9.48429L10.8347 9.48428C10.9097 9.44765 10.9832 9.41174 11.0456 9.38827ZM11.4309 8.30482L11.4309 8.30482L11.4309 8.30481L11.431 8.3048L11.4311 8.30478L11.4312 8.30475C11.4566 8.29888 11.4573 8.29872 11.424 8.30679C11.3578 8.32282 11.2191 8.37737 11.0629 8.43879L11.0629 8.43879C10.746 8.56344 10.3572 8.71631 10.3572 8.6327C10.3572 8.57029 10.2985 8.53909 10.2691 8.52348C10.259 8.51813 10.2524 8.51461 10.2528 8.5123C10.2535 8.50788 10.28 8.50788 10.3572 8.50788C10.5531 8.50788 11.3025 8.33452 11.4309 8.30482L11.4309 8.30482ZM11.1617 6.39687C11.4255 6.2654 10.7202 6.47844 10.3942 6.5781L10.3942 6.5781L10.3942 6.57811L10.3942 6.57812L10.3941 6.57812L10.3941 6.57812L10.3941 6.57814C10.2863 6.61108 10.2499 6.62223 10.2507 6.62671C10.2511 6.629 10.2612 6.62955 10.2766 6.63039C10.3219 6.63285 10.4125 6.63778 10.4307 6.69746C10.4579 6.78652 10.7046 6.6485 10.9377 6.51808L10.9377 6.51808L10.9377 6.51806C11.017 6.47371 11.0947 6.43023 11.1617 6.39687ZM10.3942 7.20461C10.7202 7.10496 11.4255 6.89192 11.1617 7.02338C11.0947 7.05675 11.017 7.10022 10.9377 7.14458L10.9377 7.14459L10.9377 7.1446C10.7046 7.27502 10.4579 7.41304 10.4307 7.32398C10.4125 7.26429 10.3219 7.25937 10.2766 7.2569C10.2612 7.25607 10.2511 7.25552 10.2507 7.25323C10.2499 7.24874 10.2863 7.2376 10.3941 7.20464L10.3941 7.20464L10.3942 7.20464L10.3942 7.20463L10.3942 7.20462L10.3942 7.20461ZM11.1617 5.77035C11.4255 5.63888 10.7202 5.85193 10.3942 5.95158L10.3942 5.95158L10.3942 5.95159L10.3942 5.9516L10.3941 5.9516C10.2863 5.98456 10.2499 5.99571 10.2507 6.00019C10.2511 6.00248 10.2612 6.00304 10.2766 6.00387C10.3219 6.00633 10.4125 6.01126 10.4307 6.07094C10.4579 6.16001 10.7046 6.02198 10.9377 5.89156L10.9377 5.89156L10.9377 5.89155C11.017 5.84719 11.0947 5.80371 11.1617 5.77035ZM10.1798 5.40407C10.4046 5.33533 10.8914 5.18911 10.7138 5.29421C10.6687 5.32088 10.6169 5.35647 10.5639 5.39278C10.4083 5.49953 10.2435 5.61249 10.2163 5.52343C10.1981 5.46375 10.1327 5.45109 10.1001 5.44476C10.0888 5.44259 10.0815 5.44117 10.0812 5.43884C10.0806 5.43439 10.106 5.42665 10.1798 5.40407L10.1798 5.40407ZM10.3233 7.78778C10.0651 7.78778 10.3233 7.58374 10.3233 7.58374H10.4562C10.5018 7.58374 10.5426 7.56495 10.5961 7.54026C10.6985 7.49304 10.8476 7.42427 11.1671 7.42427C11.6535 7.42427 10.5815 7.78778 10.3233 7.78778Z" fill="#409100"/>
</g>
<defs>
<clipPath id="clip0_270_60840">
<rect width="20" height="15" fill="white"/>
</clipPath>
</defs>
</svg>

<svg width="24" height="24" viewbox="0 0 20 15" fill="none" xmlns="http://www.w3.org/2000/svg">
  <mask id="a" maskUnits="userSpaceOnUse" x="0" y="0" width="20" height="15">
    <path fill="#fff" d="M0 0h20v15H0z"/>
  </mask>
  <g mask="url(#a)" fill-rule="evenodd" clip-rule="evenodd">
    <path d="M14 0h6v15h-6V0zM0 0h6v15H0V0z" fill="#409100"/>
    <path d="M6 0h8v15H6V0z" fill="#fff"/>
    <path d="M7.935 11.732c-.973.158-1.28-.317-1.28-.317l.123-.1c.082-.068.36-.045.628-.022.132.01.262.022.366.022.151 0 .326-.023.508-.047.198-.026.404-.053.6-.053.374 0-1.108-.49-1.425-.19-.317.3-1.205-.139-1.205-.39 0-.17.327-.108.625-.051.14.027.272.052.362.052.285 0-.285-.556-.581-.556-.297 0 .296-.13.581-.13.163 0 .313.043.443.079.098.027.184.05.255.05.163 0-.818-.42-.983-.42h.82c.28 0 .35.039.414.076.058.034.114.066.319.066.433 0 .196-.237.196-.237s-1.464-.152-1.749-.361c-.192-.142.325-.092.813-.045.234.023.462.045.602.045.432 0-.912-.309-1.13-.309h.99c.218 0 .456.07.705.143.276.08.566.166.857.166.308 0-.292-.184-.951-.385-.533-.163-1.104-.337-1.267-.436-.167-.103-.04-.063.193.01.27.083.683.211.937.211.473 0-.63-.464-.93-.464-.3 0-.586-.135-.316-.26.166-.076.598.04.974.14.236.063.45.12.563.12.137 0 .238.053.345.11a.895.895 0 00.452.133c.377 0-.797-.502-1.284-.502-.488 0-.57-.237-.277-.237.293 0-.657-.403-.657-.403s-.137-.285.2-.285h.457c.156 0-.156-.496-.456-.496-.3 0-.039-.15.456-.15.3 0 .476.104.688.229.136.08.288.17.497.246.533.193.13-.325 0-.325-.131 0-1.478-.422-1.478-.422s.137-.156 0-.368c-.104-.16.326-.078.588-.029.085.017.152.03.178.03.062 0 .24.044.458.098.148.037.314.078.475.113.4.088-1.36-.646-1.563-.646-.203 0 .434-.12.808-.12a1 1 0 01.364.058c.093.03.188.062.391.062.4 0-.755-.43-1.13-.43-.374 0-.152-.369 0-.369.06 0 .211.02.395.044.29.038.66.087.89.087.175 0 .015-.049-.217-.12-.268-.082-.632-.194-.693-.294-.066-.111.07-.091.306-.056l.138.02c.161.084.296.139.316.074a.073.073 0 01.034-.041c.039.002.077.003.116.003.224 0 .12-.034-.094-.075l-.02-.006c-.326-.1-1.03-.313-.767-.181.052.026.11.057.17.09a4.5 4.5 0 00-.377-.039c-.178 0-.357-.138 0-.138h.712c-.222 0-.534 0-.534-.174 0-.118.247-.075.475-.036.107.018.21.036.28.036.222 0 .277 0 .155-.103-.115-.098-.512-.098-.759-.098h-.038c-.241 0 .513-.126.797-.126h.07c0-.002-.014-.003-.037-.005-.124-.012-.536-.052-.83-.185-.263-.12-.032-.09.27-.05.18.023.386.05.527.05.377 0-.155-.253-.555-.253-.321 0-.168-.088.03-.202.05-.028.1-.058.149-.088.144-.09.25.064.312.156.042.062.064.094.064-.003a.35.35 0 00-.044-.185c.01.008.025.02.044.032.156.104 0-.271 0-.271s-.155-.104 0-.104c.156 0-.05-.178-.155-.178s.277-.17.277-.17l.084-.722s.208.786.208.892v.553c0 .132-.093.224-.155.285-.079.077-.108.107.155.107.473 0 .453.15.165.15-.288 0 .083.191.6.191s-.434.224-.765.224.331.103.765.103c.293 0-.008.101-.285.195a2.826 2.826 0 00-.315.117c-.086.046.126.045.35.032-.118.035-.235.07-.324.098-.108.033-.144.044-.143.049 0 .002.01.002.026.003.045.003.136.008.154.067.027.09.274-.049.507-.179l.11-.061.1-.009s.215.247.215.398c0 .088-.282.114-.583.142l-.03.003c.015-.02-.049-.01-.143.013a2.162 2.162 0 00-.404.07c-.097.03-.08.044-.002.046l-.021.007c-.074.022-.1.03-.099.035 0 .002.008.003.02.006.032.006.097.019.115.078.027.09.192-.024.348-.13l.015-.01.148-.01c.17-.012.332-.023.421-.023.28 0-.279.135-.492.135-.091 0 .024.02.198.052.236.042.58.104.678.162.117.069-.225.043-.53.02-.139-.01-.27-.02-.346-.02-.243 0-.288.198-.122.198h.614c.233 0 .475.356.384.356a.855.855 0 00-.167.044c-.188.058-.498.155-.831.155h.829c.214 0 .825 0 .825.212 0 .132-.115.16-.267.198a1.25 1.25 0 00-.298.104c-.267.145.797.276.797.276s-.421.131-.626.131c-.205 0 .095.194.626.194.41 0 .29.223.214.363a.277.277 0 00-.04.093c0 .037-.078.069-.19.115-.145.059-.347.141-.515.288-.193.17.042.12.308.063.144-.03.299-.063.397-.063.279 0 .398.012.307.147-.091.135-.902.35-1.107.35h1.107c.307 0-.086.242-.481.242-.265 0-.413.1-.51.165-.049.032-.085.056-.116.056h.8c.04 0 .086-.065.127-.124.036-.053.069-.101.094-.097.362.057.2.512 0 .512-.23 0-.926.154-.816.309.053.075.136.04.27-.014.143-.059.345-.141.632-.141.555 0 .053.155-.086.155-.14 0-.73.112-.926.21-.13.064.325.043.78.021.226-.01.451-.022.603-.022.457 0-1.084.39-1.65.39-.565 0 .377.149.566.149.073 0 .214.019.388.042.28.038.643.087.945.087.49 0-.49.322-.927.322h-.1c-.39-.002-.684-.003-.495.234.105.131.455.096.82.058.346-.035.707-.072.885.031.32.186-1.095.17-1.705.163l-.205-.002c-.375 0 .375.14 1.02.14h.082c.577 0 .714-.001.714.189 0 .167-1.257.123-1.781.105a8.881 8.881 0 00-.206-.005c-.1 0-.159.06-.22.123-.064.067-.13.137-.255.137-.101 0-.15-.065-.193-.124-.059-.08-.11-.15-.275-.036-.288.2.288 2.21.288 2.21H9.413v-1.893s-.506-.159-1.478 0zM9.72 2.51c-.002 0 .004.01.024.028-.012-.02-.022-.028-.024-.028zm-.541 7.505c-.246-.093.377-.097.665-.097.093 0 .126 0 .128.008 0 .004-.007.01-.02.021a.255.255 0 00-.108.208c0 .178-.234.064-.454-.044a2.427 2.427 0 00-.211-.096zm.509-.724c-.288 0-.91.005-.665.097.062.024.136.06.21.096.221.108.455.222.455.045 0-.12.072-.179.108-.208.013-.01.02-.018.02-.022-.002-.008-.035-.008-.128-.008zm-.52-.419c-.2-.048.308-.05.543-.05.078 0 .104 0 .105.004 0 .002-.006.005-.016.01-.03.016-.089.048-.089.11 0 .093-.19.033-.37-.023a2.867 2.867 0 00-.172-.05zm.506-1.98c-.326-.1-1.03-.313-.767-.182.067.033.145.077.224.121.233.13.48.269.507.18.018-.06.109-.065.154-.067.015-.001.026-.002.026-.004 0-.005-.036-.016-.144-.049zm-.767-.808c-.264-.132.441.081.767.18.108.034.145.045.144.05 0 .002-.01.002-.026.003-.045.003-.136.008-.154.067-.027.09-.274-.049-.507-.18a5.654 5.654 0 00-.224-.12zm.767-.602c-.326-.1-1.03-.313-.767-.182.067.034.145.077.224.122.233.13.48.268.507.18.018-.06.109-.066.154-.068.015 0 .026-.001.026-.004 0-.004-.036-.015-.144-.048zm.706 4.279c.288 0 .91.005.665.097-.063.024-.136.06-.211.096-.22.108-.454.222-.454.045a.255.255 0 00-.108-.208c-.013-.01-.021-.018-.02-.022.002-.008.035-.008.128-.008zm.665-.373c.245-.092-.377-.097-.665-.097-.093 0-.126 0-.128.008-.001.004.007.011.02.022.036.03.108.089.108.208 0 .177.233.063.454-.045.075-.036.148-.072.21-.096zm.385-1.083a.256.256 0 01-.007.002c-.066.016-.205.07-.361.132-.317.124-.706.277-.706.194 0-.063-.058-.094-.088-.11-.01-.005-.017-.008-.016-.01 0-.005.027-.005.104-.005.196 0 .946-.173 1.074-.203zm-.27-1.908c.264-.132-.44.081-.767.181a.674.674 0 00-.143.049c0 .002.01.003.026.003.045.003.136.008.154.067.027.09.274-.048.507-.179.079-.044.157-.088.224-.121zm-.767.808c.326-.1 1.031-.313.768-.182a5.52 5.52 0 00-.224.122c-.233.13-.48.268-.507.179-.018-.06-.11-.065-.154-.067-.016 0-.026-.001-.026-.004-.001-.004.035-.015.143-.048zm.768-1.435c.263-.131-.442.082-.768.182A.674.674 0 0010.25 6c0 .002.01.003.026.004.045.002.136.007.154.067.027.089.274-.049.507-.18.079-.044.157-.087.224-.12zm-.982-.366c.225-.069.711-.215.534-.11a2.727 2.727 0 00-.15.099c-.156.107-.32.22-.348.13-.018-.06-.083-.072-.116-.078-.011-.002-.018-.004-.019-.006 0-.005.025-.012.099-.035zm.143 2.384c-.258 0 0-.204 0-.204h.133a.339.339 0 00.14-.044c.102-.047.252-.116.571-.116.486 0-.585.364-.844.364z" fill="#409100"/>
  </g>
</svg>
